X: 124009
T: GLENLIVET
Q: "Reel."
R: Reel.
%R: reel
B: James Kerr "Merry Melodies" v.1 p.24 s.0 #9
Z: 2017 John Chambers <jc:trillian.mit.edu>
M: C
L: 1/8
K: A
|: uE |\
A2(ae) cBAc | BAGB gdBG |\
A2(ae) cBAc | BGdB cA A :|\
uB |\
ABcd ecBA | GdBd gdBG |
ABcd ecBA | BGdB cAAB |\
ABcd ecBA | GdBd gdBG |\
AcBd cedf | edcB cA A :|

% %newpage
%%sep 1 1 500
%%sep 1 1 500
%%center GUARACHA WALTZ.

%%sep 1 1 500
%%sep 1 1 500

